source/img/telegram.svg

<svg width="28" height="23" viewBox="0 0 28 23" fill="none" xmlns="http://www.w3.org/2000/svg">
<path fill-rule="evenodd" clip-rule="evenodd" d="M23.4608 3.65291C23.6393 3.80222 23.7255 4.0349 23.6872 4.26448L21.0611 20.0214C21.0244 20.2411 20.8789 20.4273 20.6745 20.5159C20.47 20.6045 20.2346 20.5833 20.0493 20.4597L12.1708 15.2074C12.0177 15.1054 11.9145 14.9437 11.8862 14.7619C11.858 14.58 11.9074 14.3947 12.0223 14.251L14.633 10.9877L10.273 13.8944C10.077 14.025 9.82597 14.0407 9.61524 13.9353L4.36293 11.3092C4.12769 11.1915 3.98535 10.9449 4.0012 10.6824C4.01705 10.4198 4.18804 10.1921 4.43573 10.1036L22.8188 3.53826C23.038 3.45998 23.2822 3.50359 23.4608 3.65291ZM6.32626 10.8228L9.86168 12.5905L17.4231 7.5495C17.6925 7.36994 18.0525 7.41349 18.2712 7.6521C18.49 7.8907 18.5022 8.25314 18.3 8.50591L13.495 14.5121L19.9328 18.8039L22.2083 5.15058L6.32626 10.8228Z" fill="#231F20"/>
</svg>

<svg xmlns="http://www.w3.org/2000/svg" width="28" height="23"><path fill-rule="evenodd" d="M23.46 3.65c.18.15.27.38.23.61l-2.63 15.76a.66.66 0 0 1-1.01.44l-7.88-5.25a.66.66 0 0 1-.15-.96L14.63 11l-4.36 2.9a.66.66 0 0 1-.65.05L4.36 11.3a.66.66 0 0 1 .08-1.2l18.38-6.57a.66.66 0 0 1 .64.11ZM6.33 10.82l3.53 1.77 7.56-5.04a.66.66 0 0 1 .88.96l-4.8 6 6.43 4.3 2.28-13.66-15.88 5.67Z" clip-rule="evenodd"/></svg>
